icons-rebrand/svg/back-to-full-screen-bold.svg

<svg width="32" height="32" viewBox="0 0 32 32" fill="none" xmlns="http://www.w3.org/2000/svg">
<path d="M24.9999 9H20.9999C20.7347 9 20.4804 9.10536 20.2928 9.29289C20.1053 9.48043 19.9999 9.73478 19.9999 10C19.9999 10.2652 20.1053 10.5196 20.2928 10.7071C20.4804 10.8946 20.7347 11 20.9999 11H22.5869L19.2929 14.293C19.106 14.4808 19.001 14.735 19.001 15C19.001 15.265 19.106 15.5192 19.2929 15.707C19.4805 15.8945 19.7348 15.9998 19.9999 15.9998C20.2651 15.9998 20.5194 15.8945 20.7069 15.707L23.9999 12.415V14C23.9999 14.2652 24.1053 14.5196 24.2928 14.7071C24.4804 14.8946 24.7347 15 24.9999 15C25.2652 15 25.5195 14.8946 25.707 14.7071C25.8946 14.5196 25.9999 14.2652 25.9999 14V10C25.9999 9.73478 25.8946 9.48043 25.707 9.29289C25.5195 9.10536 25.2652 9 24.9999 9Z" fill="#0F0F0F"/>
<path d="M25 5H7C5.6744 5.00159 4.40356 5.52888 3.46622 6.46622C2.52888 7.40356 2.00159 8.6744 2 10V22C2.00159 23.3256 2.52888 24.5964 3.46622 25.5338C4.40356 26.4711 5.6744 26.9984 7 27H25C26.3256 26.9984 27.5964 26.4711 28.5338 25.5338C29.4711 24.5964 29.9984 23.3256 30 22V10C29.9984 8.6744 29.4711 7.40356 28.5338 6.46622C27.5964 5.52888 26.3256 5.00159 25 5ZM7 25C6.20459 24.9992 5.44199 24.6829 4.87956 24.1204C4.31712 23.558 4.00079 22.7954 4 22V17H13.052C13.8473 17.0011 14.6098 17.3175 15.1722 17.8798C15.7345 18.4422 16.0509 19.2047 16.052 20V25H7ZM28 22C27.9992 22.7954 27.6829 23.558 27.1204 24.1204C26.558 24.6829 25.7954 24.9992 25 25H18.052V20C18.0504 18.6744 17.5231 17.4036 16.5858 16.4662C15.6484 15.5289 14.3776 15.0016 13.052 15H4V10C4.00079 9.20459 4.31712 8.44199 4.87956 7.87956C5.44199 7.31712 6.20459 7.00079 7 7H25C25.7954 7.00079 26.558 7.31712 27.1204 7.87956C27.6829 8.44199 27.9992 9.20459 28 10V22Z" fill="#0F0F0F"/>
</svg>

<svg width="32" height="32" viewBox="0 0 32 32" fill="none" xmlns="http://www.w3.org/2000/svg"><path d="M25 9h-4a1 1 0 0 0 0 2h1.587l-3.294 3.293a1.002 1.002 0 0 0 0 1.414 1 1 0 0 0 1.414 0L24 12.415V14a1 1 0 0 0 2 0v-4a1 1 0 0 0-1-1z" fill="#0F0F0F"/><path d="M25 5H7a5.006 5.006 0 0 0-5 5v12a5.006 5.006 0 0 0 5 5h18a5.006 5.006 0 0 0 5-5V10a5.006 5.006 0 0 0-5-5zM7 25a3.003 3.003 0 0 1-3-3v-5h9.052a3.004 3.004 0 0 1 3 3v5H7zm21-3a3.003 3.003 0 0 1-3 3h-6.948v-5a5.006 5.006 0 0 0-5-5H4v-5a3.003 3.003 0 0 1 3-3h18a3.003 3.003 0 0 1 3 3v12z" fill="#0F0F0F"/></svg>
